X:2
T:Just The Way You Are
C:Billy Joel
L:1/4
M:C
I:linebreak $
K:D treble
"D" z2 d f |"Bm" B B3 |"G" z2 B d |"D7" B A3 |"G" z2 G A |"Gm" =F D D A, |"F#m" F4 |"Am" z4 "D7" x4|$
"G" z2 F E |"Gm" E D3 |"F#m" D F A |"Bm" c d3 ||1"E7" z2 B c | d e c B |"A7" A4 | z4 :|2$
"E7" z2 B c |"A7" d f B c |"D" d4 | z4 | z4 | "_Fine" z4 |]$"G" z2 B d |"A7" c B A G |"F#m" A3 c |
"B7" B4 |"Em" z2 G B |"A7" A G F E |"D" F4 | z4 ||$[K:F]"Gm" z2 d f |"C7" e d c B |"Am" c3 e |
"D7" d4 |"Gm" z2 B d |"C7" c B A G ||[K:D]"A" A4 |"A7" "_D.C. al 2nd end." z4 ||

